X:1
T:Tota pulchra es
T:Giacomo Arigoni
T:Source : Ghirlanda Sacra---Venetia---B.Magni ( Ang.Gardano)---1625. Editor : André Vierendeels (05/10/18) Notes : Original clefs : C1, F4 Original note values have been halved in 3-beat measures Dotted brackets indicate black notes Figures in BC are notated in original print Music collected by Leonardo Simonetti m 59 in BC : "B" notated as "C" in original print
T:Tota pulchra es
T:©
T:©
T:©
T:©
T:©
T:©
T:©
C:Giacomo Arigoni
Z:©
%%score 1 { 2 | 3 }
L:1/8
Q:1/4=96
M:4/4
K:F
V:1 treble nm="Soprano" snm="S"
V:2 treble nm="MusicXML Part"
V:3 bass 
V:1
 c>B B>A A2 G2 | F3 F BGcA | d>c c>B B2 A2 | G3 G cAdB | _e>d d>c c3 B | B2 z B B>A A>G | %6
w: To- ta, to- ta pul- chra|es, a- mi- ca me- a,|to- ta, to- ta pul- chra|es, for- mo- sa me- a,|to- ta, to- ta pul- chra|es et ma- cu- la non|
 G2 z A c2 A2 | G2 z c _e2 c2 | B2 z F B2 G2 | !fermata!F8 | A2 =Bc dddd | d2 ^c2 d2 B2 | %12
w: est, non est in|te, non est in|te, non est in|te,|to- ta su- a- vis et de-|co- * ra et|
 ABcB A3 G | G2 z c defF | G3 F F4 | A6 EE | ^F2 F2 d2 dc | BAcB TA4 | G3 G ABcd | d3 c c4 | z8 | %21
w: ma- cu- la non est in|te et ma- cu- la non|est in te,|to- ta su-|a- vis, to- ta su-|a- vis et de- co-|ra et ma- cu- la non|est in te,||
 z8 | z8 | G2 AB c2 B>A | A2 G2 F2 E2 | z dcc B2 A2 | z Bcd _eddc | c4 B4 | d2 _e2 c4 | c2 d2 B4 | %30
w: ||ve- ni de Li- ba- no,|spon- sa me- a,|a- mi- ca me- a,|for- mo- sa me- a, ve- ni,|ve- ni,|ve- * ni,|ve- * ni,|
 c3 B A3 G | G4 z GFG | E2 FE D2 C2 || z4 z cBc | AABc d2 dd | d2 ^c2 d4 | dc/B/ AB/c/ ^F2 cB | %37
w: co- ro- na- be-|ris, quam pul- chra|es, O Ma- ri- a.|Quam pul- chra|es et quam de- co- ra ca-|ris- si- ma,|O _ _ _ _ _ _ quam su-|
[M:2/4] A2 G2 |[M:4/4] z ddd _eecc | ddBB cd_ed | c3 B B3 A | cBAG A4 | G8 | %43
w: a- vis,|O quam su- a- vis, quam su-|a- vis O Ma- ri- a De- i|ge- ni- trix et|Vir- go Glo- ri- o-|sa,|
[M:6/4] c2 c2 c2 c4 =B2 | c4 d2 d4 ^c2 | d2 D2 E2 F2 G2 A2 | G4 F2 F2 A2 B2 | c2 G2 A2 B2 c2 d2 | %48
w: ec- ce tu pul- chra|es, tu pul- chra|es in- ter o- mnes mu-|li- e- res, pul- chra|es in- ter o- mnes mu-|
 c4 B2 B2 d4 | c4 B4 A4 | G2 G3 F F2 G2 G2 | A2 A2 c2 c4 =B2 | c2 G2 A2 B2 d2 e2 | %53
w: li- e- res, in|ter o- mnes|mu- li- e- res, ec- ce,|ec- ce tu pul- chra|es, pul- chra es, pul- chra|
 f2 _e2 d2 e2 f2 e2 | d4 c2 c2 G2 A2 | B2 A2 G2 A2 G2 F2 |[M:2/2] G6 F2 | F4 z2 c/A/B/c/ | %58
w: es, in- ter o- mnes mu-|li- e- res, pul- chra|es in- ter o- mnes mu-|li- e-|res. Al- * * *|
 de/f/gf e2 d2 | z ccB cTcBA | GA/B/cB A2 G2 | z FFE c/A/B/c/ d/c/B/A/ | GA/B/ c3 d/e/ f2- | %63
w: * * * * le- lu- ia,|al- le- lu- ia, al- le- *|* * * * * lu- ia,|al- le lu- ia, _ _ _ _ _ _ _|al- * * * * * *|
 f2 G2 TG4 | F8 |] %65
w: * le- lu-|ia.|
V:2
 z8 | z8 | z8 | z8 |"^BC" z8 | z8 | z8 | z8 | z8 | z8 | z8 | z8 | z8 | z8 | z8 | z8 | z8 | z8 | %18
 z8 | z8 | z8 | z8 | z8 | z8 | z8 | z8 | z8 | z8 | z8 | z8 | z8 | z8 | z8 || z8 | z8 | z8 | z8 | %37
[M:2/4] z4 |[M:4/4] z8 | z8 | z8 | z8 | z8 |[M:6/4] z12 | z12 | z12 | z12 | z12 | z12 | z12 | z12 | %51
 z12 | z12 | z12 | z12 | z12 |[M:2/2] z8 | z8 | z8 | z8 | z8 | z8 | z8 | z8 | z8 |] %65
V:3
 F,,2 G,,2 A,,B,, C,2 | F,2 D,2 G,2 A,2 | G,,2 A,,2 B,,C, D,2 | G,2 E,2 A,2 B,2 | %4
 C,2 D,2 _E,2 F,2 | B,,2 A,,2 G,,2 F,,2 | _E,2 D,2 C,2 D,2 | G,2 F,2 _E,2 F,2 | B,,2 D,2 B,,2 C,2 | %9
 !fermata!F,8 | F,2 D,2 B,,2 G,,2 | A,,4 D,2 _E,2 | D,2 C,2 D,4 | G,,2 A,,2 B,,2 D,2 | C,4 F,,4 | %15
 F,,4 A,,4 | D,4 ^F,4 | G,2 C,2 D,4 | G,2 E,2 F,2 A,2 | G,4 C,4 | C2 B,2 A,2 G,2 | %21
 F,2 E,2 D,2 C,2 |"^6    5" F,2 G,2 C,4 | C,2 B,,2 A,,2 G,,2 | F,2 E,2 D,2 C,2 | %25
 B,,2 A,,2 G,,2 F,,2 | _E,2 D,2 C,2 D,2 | _E,2 F,2 B,,4 | B,4 F,4 | F,4 G,4 | _E,2 C,2 D,4 | %31
 G,,4 =B,,4 | C,2 F,2 G,2 C,2 || C,2 B,,C, A,,2 G,,2 | F,2 _E,2 D,2 B,,2 | A,,4 D,4 | %36
 B,2 ^F,2 D,2 C,2 |[M:2/4] D,2 G,2 |[M:4/4] G,,4 C,2 A,,2 | B,,2 G,,2 F,,2 _E,,2 | F,,4 B,,2 G,,2 | %41
 C,2 _E,2 D,4 | G,,8 |[M:6/4] E,2 F,2 G,2 G,6 | C,4 ^F,,2 G,,4 A,,2 | D,6 D,2 B,,4 | C,6 F,,6 | %47
 F,2 E,2 F,2 G,2 _E,4 | F,6 B,,6 | F,,4 G,,4 F,,4 | B,,2 C,4 F,2 E,2 E,2 | F,6 G,6 | C,6 G,,6 | %53
 D,6 C,2 F,,4 | G,,6 C,6 | G,,6 F,,6 |[M:2/2] C,8 | F,,4 F,4 | B,,2 G,,2 A,,2 D,2 | %59
 E,2 F,G, C,2 D,2 | _E,2 C,2 D,2 G,,2 | _A,,2 B,,C, F,2 B,,2 | C,3 D,/E,/ F,2 A,,2 | C,8 | F,,8 |] %65

